Hatter-kde/actions/24/stickers.svg

<?xml version="1.0" encoding="UTF-8"?>
<svg width="24" height="24" fill="none" viewBox="0 0 24 24" xmlns="http://www.w3.org/2000/svg">
 <style id="current-color-scheme" type="text/css">.ColorScheme-Text { color: #363636; }</style>
 <g transform="translate(1,1)" fill="currentColor">
  <path class="ColorScheme-Text" d="M3 3H19V13H18V4H4V18H13V19H3V3Z" clip-rule="evenodd" fill-rule="evenodd"/>
  <path class="ColorScheme-Text" d="m9 9c0 0.55228-0.44772 1-1 1s-1-0.44772-1-1 0.44772-1 1-1 1 0.44772 1 1z"/>
  <path class="ColorScheme-Text" d="m15 9c0 0.55228-0.4477 1-1 1s-1-0.44772-1-1 0.4477-1 1-1 1 0.44772 1 1z"/>
  <path class="ColorScheme-Text" d="m14.429 12.257c-1.5531 2.5885-5.3045 2.5885-6.8575 0l0.85749-0.5145c1.1647 1.9411 3.9778 1.9411 5.1426 0l0.8575 0.5145z" clip-rule="evenodd" fill-rule="evenodd"/>
  <path class="ColorScheme-Text" d="M19 11.5V13.7071L13.7071 19H11.5V18H13V13H18V11.5H19ZM17.2929 14H14V17.2929L17.2929 14Z" clip-rule="evenodd" fill-rule="evenodd"/>
 </g>
</svg>

<svg xmlns="http://www.w3.org/2000/svg" width="24" height="24" viewBox="0 0 24 24" fill="none">
  <style type="text/css" id="current-color-scheme">.ColorScheme-Text { color: #363636; }</style>
  <g transform="translate(1,1)">
    <path fill-rule="evenodd" clip-rule="evenodd" d="M3 3H19V13H18V4H4V18H13V19H3V3Z" fill="currentColor" class="ColorScheme-Text"/>
    <path d="M9 9C9 9.55228 8.55228 10 8 10C7.44772 10 7 9.55228 7 9C7 8.44772 7.44772 8 8 8C8.55228 8 9 8.44772 9 9Z" fill="currentColor" class="ColorScheme-Text"/>
    <path d="M15 9C15 9.55228 14.5523 10 14 10C13.4477 10 13 9.55228 13 9C13 8.44772 13.4477 8 14 8C14.5523 8 15 8.44772 15 9Z" fill="currentColor" class="ColorScheme-Text"/>
    <path fill-rule="evenodd" clip-rule="evenodd" d="M14.4288 12.2572C12.8757 14.8457 9.12432 14.8457 7.57126 12.2572L8.42875 11.7427C9.59341 13.6838 12.4066 13.6838 13.5713 11.7427L14.4288 12.2572Z" fill="currentColor" class="ColorScheme-Text"/>
    <path fill-rule="evenodd" clip-rule="evenodd" d="M19 11.5V13.7071L13.7071 19H11.5V18H13V13H18V11.5H19ZM17.2929 14H14V17.2929L17.2929 14Z" fill="currentColor" class="ColorScheme-Text"/>
  </g>
</svg>
